X:1
T: For tonight we'll merry, merry be
C:
R:Reel
Q: 232
K:D
M:4/4
L:1/8
fe|d2 A2 F2 A2|d3d d2 d2|e3e e2 e2|f4 d4|d2 A2 F2 A2|d3d d2 d2|e3e e2 e2|f4 d4|
f3f f2 a2|ag gg g3f|e3e e2 g2|gf ff f2 z2|d3d d2 f2|fe ee e3d|c2 A2 B2 c2|d2 z2 d2 z2|
f3f f2 a2|ag gg g3f|e3e e2 g2|gf ff f2 z2|d3d d2 f2|fe ee e3d|c2 A2 B2 c2|d2 z2 d2||
